packages/kaspersky-hexa-ui-icons/src/iconsSVGs/16/NumberedList.svg

<svg width="16" height="16" viewBox="0 0 16 16" fill="none" xmlns="http://www.w3.org/2000/svg">
<path d="M3.09961 11.0042C3.2747 11.0043 3.43295 11.11 3.5 11.2718C3.5668 11.4335 3.52999 11.6206 3.40625 11.7444L3.05664 12.0931C3.34192 12.2728 3.53219 12.5894 3.53223 12.9515C3.53198 13.5119 3.07804 13.9669 2.51758 13.9671H2.12891C1.82007 13.9669 1.52959 13.8177 1.34961 13.5667C1.2104 13.3723 1.25585 13.1016 1.4502 12.9622C1.64468 12.823 1.91539 12.8674 2.05469 13.0618C2.07195 13.0857 2.09948 13.1007 2.12891 13.1009H2.51758C2.59951 13.1006 2.66577 13.0334 2.66602 12.9515C2.66596 12.8694 2.59963 12.8033 2.51758 12.803H2.16797C1.99299 12.803 1.83479 12.697 1.76758 12.5354C1.70056 12.3736 1.73758 12.1867 1.86133 12.0628L2.05273 11.8714H1.70215C1.46304 11.8714 1.2688 11.6768 1.26855 11.4378C1.26855 11.1985 1.46288 11.0042 1.70215 11.0042H3.09961Z" fill="black"/>
<path d="M14.4619 11.8353C14.8208 11.8354 15.1123 12.1267 15.1123 12.4856C15.1121 12.8444 14.8207 13.1359 14.4619 13.136H5.10938C4.7505 13.136 4.45916 12.8445 4.45898 12.4856C4.45898 12.1267 4.75039 11.8353 5.10938 11.8353H14.4619Z" fill="black"/>
<path d="M2.36621 6.51787C3.01566 6.51794 3.51863 7.0872 3.43945 7.73174C3.41055 7.96606 3.28916 8.1799 3.10254 8.32451L2.72754 8.61455H3.09961C3.33853 8.61468 3.53185 8.80831 3.53223 9.04717C3.53223 9.28635 3.33876 9.48063 3.09961 9.48076H1.70215C1.46288 9.48076 1.26855 9.28643 1.26855 9.04717V8.9749C1.26869 8.76902 1.36458 8.57462 1.52734 8.44853L2.57227 7.63896C2.57617 7.63583 2.57937 7.63122 2.58008 7.62627C2.5956 7.49836 2.4951 7.38512 2.36621 7.38506H2.3252C2.22054 7.38506 2.13596 7.46991 2.13574 7.57451C2.1357 7.8137 1.94133 8.00804 1.70215 8.0081C1.46291 8.0081 1.2686 7.81374 1.26855 7.57451C1.26878 6.99138 1.74201 6.51787 2.3252 6.51787H2.36621Z" fill="black"/>
<path d="M14.4619 7.3499C14.8208 7.35001 15.1123 7.64138 15.1123 8.00029C15.1121 8.35901 14.8207 8.65057 14.4619 8.65068H5.10938C4.75053 8.65068 4.45921 8.35908 4.45898 8.00029C4.45898 7.64131 4.75039 7.3499 5.10938 7.3499H14.4619Z" fill="black"/>
<path d="M2.19336 2.15947C2.3171 2.03596 2.50342 1.99908 2.66504 2.06572C2.82683 2.13274 2.93249 2.29101 2.93262 2.46611V4.56181C2.93262 4.80108 2.73829 4.99541 2.49902 4.99541C2.26013 4.99498 2.06641 4.80081 2.06641 4.56181V3.5042C1.89641 3.63752 1.65075 3.6276 1.49414 3.47099C1.32561 3.30187 1.32545 3.02771 1.49414 2.85869L2.19336 2.15947Z" fill="black"/>
<path d="M14.4668 2.86357C14.8254 2.86379 15.1169 3.15532 15.1172 3.51396C15.1172 3.87281 14.8256 4.16414 14.4668 4.16435H5.11426C4.75527 4.16435 4.46387 3.87295 4.46387 3.51396C4.46412 3.15519 4.75543 2.86357 5.11426 2.86357H14.4668Z" fill="black"/>
</svg>

<svg xmlns="http://www.w3.org/2000/svg" width="16" height="16" fill="none" viewBox="0 0 16 16"><path fill="#000" fill-rule="evenodd" d="M2.665 2.0658a.434.434 0 0 0-.4716.0937l-.6993.6993a.434.434 0 0 0 0 .6123c.1566.1566.4023.1665.5723.0332v1.0576c0 .239.1937.4331.4326.4336a.434.434 0 0 0 .4336-.4336V2.4662a.434.434 0 0 0-.2676-.4004M15.1172 3.514a.6514.6514 0 0 0-.6504-.6504H5.1143a.651.651 0 0 0-.6504.6504c0 .359.2914.6504.6504.6504h9.3525a.651.651 0 0 0 .6504-.6504M2.3662 6.518c.6494 0 1.1524.5693 1.0732 1.2138a.888.888 0 0 1-.3369.5928l-.375.29h.3721a.433.433 0 0 1 .4326.4326.433.433 0 0 1-.4326.4336H1.7022a.434.434 0 0 1-.4336-.4336V8.975a.667.667 0 0 1 .2587-.5264l1.045-.8096a.02.02 0 0 0 .0078-.0127.2158.2158 0 0 0-.2139-.2412h-.041a.1896.1896 0 0 0-.1895.1895.434.434 0 0 1-.4335.4336.434.434 0 0 1-.4336-.4336c.0002-.5832.4734-1.0567 1.0566-1.0567zm12.7461 1.4824a.651.651 0 0 0-.6504-.6504H5.1094a.6507.6507 0 0 0-.6504.6504.651.651 0 0 0 .6504.6503h9.3525a.651.651 0 0 0 .6504-.6503M3.0996 11.0043a.434.434 0 0 1 .4004.2675.435.435 0 0 1-.0937.4727l-.3497.3486c.2853.1798.4756.4963.4756.8584-.0002.5605-.4542 1.0154-1.0146 1.0156h-.3887a.96.96 0 0 1-.7793-.4003.4336.4336 0 0 1 .705-.5049.093.093 0 0 0 .0743.039h.3887a.1496.1496 0 0 0 .1484-.1494.1484.1484 0 0 0-.1484-.1484H2.168a.435.435 0 0 1-.4004-.2676.434.434 0 0 1 .0937-.4726l.1914-.1915h-.3506a.434.434 0 0 1-.4335-.4335.434.434 0 0 1 .4336-.4336zm12.0127 1.4814a.651.651 0 0 0-.6504-.6504H5.1094a.6507.6507 0 0 0-.6504.6504.651.651 0 0 0 .6504.6504h9.3525a.651.651 0 0 0 .6504-.6504"/></svg>
